assets/svgs/misc-grey/MiscGrey19.svg

<svg width="39" height="40" viewBox="0 0 39 40" fill="none" xmlns="http://www.w3.org/2000/svg">
<path fill-rule="evenodd" clip-rule="evenodd" d="M25.248 14.465L16.256 23.345L13.806 20.544C13.261 19.921 12.313 19.857 11.689 20.403C11.065 20.949 11.002 21.896 11.548 22.52L15.048 26.52C15.32 26.831 15.709 27.016 16.122 27.031C16.141 27.032 16.159 27.032 16.177 27.032C16.571 27.032 16.95 26.877 17.231 26.6L27.356 16.6C27.945 16.017 27.951 15.067 27.369 14.478C26.787 13.889 25.837 13.883 25.248 14.465ZM19.333 36.282C10.372 36.282 3.08301 28.993 3.08301 20.032C3.08301 11.072 10.372 3.78201 19.333 3.78201C28.293 3.78201 35.583 11.072 35.583 20.032C35.583 28.993 28.293 36.282 19.333 36.282ZM19.333 0.782013C8.71801 0.782013 0.0830078 9.41801 0.0830078 20.032C0.0830078 30.646 8.71801 39.282 19.333 39.282C29.947 39.282 38.583 30.646 38.583 20.032C38.583 9.41801 29.947 0.782013 19.333 0.782013Z" fill="#1A1919"/>
</svg>

<svg xmlns="http://www.w3.org/2000/svg" viewBox="0 0 39 40"><path fill-rule="evenodd" d="M25.248 14.465l-8.992 8.88-2.45-2.801a1.5 1.5 0 00-2.258 1.976l3.5 4a1.5 1.5 0 001.074.511l.055.001c.394 0 .773-.155 1.054-.432l10.125-10a1.501 1.501 0 00-2.108-2.135zm-5.915 21.817c-8.961 0-16.25-7.289-16.25-16.25 0-8.96 7.289-16.25 16.25-16.25 8.96 0 16.25 7.29 16.25 16.25 0 8.961-7.29 16.25-16.25 16.25zm0-35.5C8.718.782.083 9.418.083 20.032s8.635 19.25 19.25 19.25c10.614 0 19.25-8.636 19.25-19.25S29.947.782 19.333.782z" clip-rule="evenodd"/></svg>
